svgs/duotone/mobile-notch.svg

<svg xmlns="http://www.w3.org/2000/svg" viewBox="0 0 384 512"><!--! Font Awesome Pro 6.6.0 by @fontawesome - https://fontawesome.com License - https://fontawesome.com/license (Commercial License) Copyright 2024 Fonticons, Inc. --><defs><style>.fa-secondary{opacity:.4}</style></defs><path class="fa-secondary" d="M16 80C16 35.8 51.8 0 96 0L288 0c44.2 0 80 35.8 80 80l0 352c0 44.2-35.8 80-80 80L96 512c-44.2 0-80-35.8-80-80L16 80zm64 0l0 352c0 8.8 7.2 16 16 16l192 0c8.8 0 16-7.2 16-16l0-352c0-8.8-7.2-16-16-16l-32 0 0 16c0 8.8-7.2 16-16 16l-96 0c-8.8 0-16-7.2-16-16l0-16L96 64c-8.8 0-16 7.2-16 16z"/><path class="fa-primary" d="M128 64H96c-8.8 0-16 7.2-16 16V432c0 8.8 7.2 16 16 16H288c8.8 0 16-7.2 16-16V80c0-8.8-7.2-16-16-16H256V80c0 8.8-7.2 16-16 16H144c-8.8 0-16-7.2-16-16V64z"/></svg>

<svg xmlns="http://www.w3.org/2000/svg" viewBox="0 0 384 512"><!--! Font Awesome Pro 6.5.2 by @fontawesome - https://fontawesome.com License - https://fontawesome.com/license (Commercial License) Copyright 2024 Fonticons, Inc. --><defs><style>.fa-secondary{opacity:.4}</style></defs><path class="fa-secondary" d="M256 64V80c0 8.8-7.2 16-16 16H144c-8.8 0-16-7.2-16-16V64H96c-8.8 0-16 7.2-16 16V432c0 8.8 7.2 16 16 16H288c8.8 0 16-7.2 16-16V80c0-8.8-7.2-16-16-16H256zM16 80C16 35.8 51.8 0 96 0H288c44.2 0 80 35.8 80 80V432c0 44.2-35.8 80-80 80H96c-44.2 0-80-35.8-80-80V80z"/><path class="fa-primary" d="M128 64H96c-8.8 0-16 7.2-16 16V432c0 8.8 7.2 16 16 16H288c8.8 0 16-7.2 16-16V80c0-8.8-7.2-16-16-16H256V80c0 8.8-7.2 16-16 16H144c-8.8 0-16-7.2-16-16V64z"/></svg>
